X:1
T:The Mistress on the Floor
R:Reel
D:Alan Burke & Joe McHugh, http://www.youtube.com/watch?v=CWFKfwBAHlI&feature=related
I:Air joué en si majeur sur la vidéo
M:2/2
Q:160
K:D
B |: AGFE D2FD | GDFE Ddcd | AGFE D2FD | E2=cA BGEB :|
  | cdec A3B | cdec AGEB | cdec A2AG | E2=cA BGEB |
    cdec A3B | cdec AGEB | cdeg fdec | ABBB BdcB |
